svg/business/target_line.svg

<?xml version="1.0" encoding="UTF-8"?>
<svg width="24px" height="24px" viewBox="0 0 24 24" version="1.1" xmlns="http://www.w3.org/2000/svg" xmlns:xlink="http://www.w3.org/1999/xlink">
    <title>target_line</title>
    <g id="页面-1" stroke="none" stroke-width="1" fill="none" fill-rule="evenodd">
        <g id="Business" transform="translate(-576.000000, -192.000000)" fill-rule="nonzero">
            <g id="target_line" transform="translate(576.000000, 192.000000)">
                <path d="M24,0 L24,24 L0,24 L0,0 L24,0 Z M12.5934901,23.257841 L12.5819402,23.2595131 L12.5108777,23.2950439 L12.4918791,23.2987469 L12.4918791,23.2987469 L12.4767152,23.2950439 L12.4056548,23.2595131 C12.3958229,23.2563662 12.3870493,23.2590235 12.3821421,23.2649074 L12.3780323,23.275831 L12.360941,23.7031097 L12.3658947,23.7234994 L12.3769048,23.7357139 L12.4804777,23.8096931 L12.4953491,23.8136134 L12.4953491,23.8136134 L12.5071152,23.8096931 L12.6106902,23.7357139 L12.6232938,23.7196733 L12.6232938,23.7196733 L12.6266527,23.7031097 L12.609561,23.275831 C12.6075724,23.2657013 12.6010112,23.2592993 12.5934901,23.257841 L12.5934901,23.257841 Z M12.8583906,23.1452862 L12.8445485,23.1473072 L12.6598443,23.2396597 L12.6498822,23.2499052 L12.6498822,23.2499052 L12.6471943,23.2611114 L12.6650943,23.6906389 L12.6699349,23.7034178 L12.6699349,23.7034178 L12.678386,23.7104931 L12.8793402,23.8032389 C12.8914285,23.8068999 12.9022333,23.8029875 12.9078286,23.7952264 L12.9118235,23.7811639 L12.8776777,23.1665331 C12.8752882,23.1545897 12.8674102,23.1470016 12.8583906,23.1452862 L12.8583906,23.1452862 Z M12.1430473,23.1473072 C12.1332178,23.1423925 12.1221763,23.1452606 12.1156365,23.1525954 L12.1099173,23.1665331 L12.0757714,23.7811639 C12.0751323,23.7926639 12.0828099,23.8018602 12.0926481,23.8045676 L12.108256,23.8032389 L12.3092106,23.7104931 L12.3186497,23.7024347 L12.3186497,23.7024347 L12.3225043,23.6906389 L12.340401,23.2611114 L12.337245,23.2485176 L12.337245,23.2485176 L12.3277531,23.2396597 L12.1430473,23.1473072 Z" id="MingCute" fill-rule="nonzero"></path>
                <path d="M12,2 C12.3748,2 12.7451,2.02066 13.1099,2.06098 C13.6588,2.12167 14.0546,2.61586 13.9939,3.1648 C13.9333,3.71374 13.4391,4.10956 12.8901,4.04887 C12.5982,4.0166 12.3012,4 12,4 C7.58172,4 4,7.58172 4,12 C4,16.4183 7.58172,20 12,20 C16.4183,20 20,16.4183 20,12 C20,11.6988 19.9834,11.4018 19.9511,11.1099 C19.8904,10.5609 20.2863,10.0667 20.8352,10.0061 C21.3841,9.94537 21.8783,10.3412 21.939,10.8901 C21.9793,11.2549 22,11.6252 22,12 C22,17.5228 17.5228,22 12,22 C6.47715,22 2,17.5228 2,12 C2,6.47715 6.47715,2 12,2 Z M11.9684,7.87672 C12.1061,8.41157 11.7841,8.95675 11.2493,9.09441 C9.95512,9.4275 9,10.6035 9,12 C9,13.6568 10.3431,15 12,15 C13.3965,15 14.5725,14.0448 14.9055,12.7507 C15.0432,12.2158 15.5884,11.8939 16.1232,12.0315 C16.6581,12.1692 16.9801,12.7144 16.8424,13.2492 C16.2874,15.4055 14.3312,17 12,17 C9.23858,17 7,14.7614 7,12 C7,9.66879 8.59442,7.71254 10.7507,7.15754 C11.2856,7.01988 11.8308,7.34187 11.9684,7.87672 Z M18.504,2.12625 C18.8777,2.28104 19.1214,2.64567 19.1214,3.05013 L19.1214,4.87856 L20.9498,4.87856 C21.3542,4.87856 21.7189,5.1222 21.8737,5.49588 C22.0284,5.86955 21.9429,6.29967 21.6569,6.58567 L18.1214,10.1212 C17.9338,10.3087 17.6795,10.4141 17.4142,10.4141 L15,10.4141 L13.1716,12.2425 C12.7811,12.633 12.1479,12.633 11.7574,12.2425 C11.3669,11.852 11.3669,11.2188 11.7574,10.8283 L13.5858,8.99989 L13.5858,6.58567 C13.5858,6.32045 13.6912,6.0661 13.8787,5.87856 L17.4142,2.34303 C17.7002,2.05703 18.1304,1.97147 18.504,2.12625 Z M17.1214,5.46435 L15.5858,6.99988 L15.5858,8.41409 L17,8.41409 L18.5356,6.87856 L18.1214,6.87856 C17.5691,6.87856 17.1214,6.43085 17.1214,5.87856 L17.1214,5.46435 Z" id="形状" fill="#09244B"></path>
            </g>
        </g>
    </g>
</svg>

<svg xmlns="http://www.w3.org/2000/svg" width="24" height="24"><g fill="none" fill-rule="nonzero"><path d="M24 0v24H0V0zM12.593 23.258l-.011.002-.071.035-.02.004-.014-.004-.071-.035c-.01-.004-.019-.001-.024.005l-.004.01-.017.428.005.02.01.013.104.074.015.004.012-.004.104-.074.012-.016.004-.017-.017-.427c-.002-.01-.009-.017-.017-.018m.265-.113-.013.002-.185.093-.01.01-.003.011.018.43.005.012.008.007.201.093c.012.004.023 0 .029-.008l.004-.014-.034-.614c-.003-.012-.01-.02-.02-.022m-.715.002a.023.023 0 0 0-.027.006l-.006.014-.034.614c0 .012.007.02.017.024l.015-.002.201-.093.01-.008.004-.011.017-.43-.003-.012-.01-.01z"/><path fill="#09244B" d="M12 2c.375 0 .745.02 1.11.061a1 1 0 0 1-.22 1.988 8 8 0 1 0 7.061 7.061 1 1 0 1 1 1.988-.22c.04.365.061.735.061 1.11 0 5.523-4.477 10-10 10S2 17.523 2 12 6.477 2 12 2m-.032 5.877a1 1 0 0 1-.719 1.217A3.002 3.002 0 0 0 12 15a3.002 3.002 0 0 0 2.906-2.25 1 1 0 0 1 1.936.5A5.002 5.002 0 0 1 7 12a5.002 5.002 0 0 1 3.75-4.842 1 1 0 0 1 1.218.719m6.536-5.75a1 1 0 0 1 .617.923V4.88h1.829a1 1 0 0 1 .707 1.707L18.12 10.12a1 1 0 0 1-.707.293H15l-1.828 1.829a1 1 0 0 1-1.415-1.415L13.586 9V6.586a1 1 0 0 1 .293-.707l3.535-3.536a1 1 0 0 1 1.09-.217m-1.383 3.337L15.586 7v1.414H17l1.536-1.535h-.415a1 1 0 0 1-1-1z"/></g></svg>
